src/assets/images/logo.svg

<svg width="180" height="36" viewBox="0 0 180 36" fill="none" xmlns="http://www.w3.org/2000/svg">
<path d="M41.04 24.7112V22.4012H43.6917C44.359 22.4012 44.9502 22.3021 45.4653 22.1037C45.9922 21.8937 46.437 21.6021 46.8 21.2287C47.1629 20.8554 47.438 20.4179 47.6253 19.9162C47.8244 19.4029 47.9239 18.8371 47.9239 18.2187C47.9239 17.5771 47.8244 17.0054 47.6253 16.5037C47.438 15.9904 47.1629 15.5529 46.8 15.1912C46.437 14.8296 45.9922 14.5554 45.4653 14.3687C44.9502 14.1821 44.359 14.0887 43.6917 14.0887H41.04V11.7787H43.5336C44.6926 11.7787 45.7053 11.9479 46.5717 12.2862C47.438 12.6246 48.158 13.0912 48.7317 13.6862C49.3053 14.2696 49.7326 14.9404 50.0136 15.6987C50.3063 16.4454 50.4526 17.2212 50.4526 18.0262V18.4112C50.4526 19.1812 50.3063 19.9396 50.0136 20.6862C49.7326 21.4329 49.3053 22.1096 48.7317 22.7162C48.158 23.3229 47.438 23.8071 46.5717 24.1687C45.7053 24.5304 44.6926 24.7112 43.5336 24.7112H41.04ZM38.8975 24.7112V11.7787H41.3912V24.7112H38.8975Z" fill="#FAFAFA"/>
<path d="M52.949 24.6412V15.1387H55.39V24.6412H52.949ZM51.6144 16.9587V15.1387H55.39V16.9587H51.6144ZM53.8447 14.0012C53.3647 14.0012 53.0076 13.8787 52.7734 13.6337C52.551 13.3771 52.4398 13.0621 52.4398 12.6887C52.4398 12.2921 52.551 11.9712 52.7734 11.7262C53.0076 11.4812 53.3647 11.3587 53.8447 11.3587C54.3247 11.3587 54.6759 11.4812 54.8983 11.7262C55.1208 11.9712 55.232 12.2921 55.232 12.6887C55.232 13.0621 55.1208 13.3771 54.8983 13.6337C54.6759 13.8787 54.3247 14.0012 53.8447 14.0012Z" fill="#FAFAFA"/>
<path d="M63.9808 24.6412V21.8237H63.5769V18.6912C63.5769 18.1429 63.4422 17.7346 63.173 17.4662C62.9037 17.1979 62.4881 17.0637 61.9261 17.0637C61.6335 17.0637 61.2822 17.0696 60.8725 17.0812C60.4627 17.0929 60.0471 17.1104 59.6256 17.1337C59.2159 17.1454 58.8471 17.1629 58.5193 17.1862V15.1212C58.7886 15.0979 59.093 15.0746 59.4325 15.0512C59.772 15.0279 60.1174 15.0162 60.4686 15.0162C60.8315 15.0046 61.171 14.9987 61.4871 14.9987C62.4705 14.9987 63.2842 15.1271 63.9281 15.3837C64.5837 15.6404 65.0754 16.0429 65.4032 16.5912C65.7427 17.1396 65.9125 17.8571 65.9125 18.7437V24.6412H63.9808ZM60.9076 24.8862C60.2169 24.8862 59.6081 24.7637 59.0813 24.5187C58.5661 24.2737 58.1622 23.9237 57.8695 23.4687C57.5886 23.0137 57.4481 22.4654 57.4481 21.8237C57.4481 21.1237 57.6178 20.5521 57.9574 20.1087C58.3086 19.6654 58.7944 19.3329 59.4149 19.1112C60.0471 18.8896 60.7847 18.7787 61.6276 18.7787H63.8403V20.2312H61.5925C61.0305 20.2312 60.5974 20.3712 60.293 20.6512C60.0003 20.9196 59.8539 21.2696 59.8539 21.7012C59.8539 22.1329 60.0003 22.4829 60.293 22.7512C60.5974 23.0196 61.0305 23.1537 61.5925 23.1537C61.932 23.1537 62.2422 23.0954 62.5232 22.9787C62.8159 22.8504 63.0559 22.6404 63.2432 22.3487C63.4422 22.0454 63.5535 21.6371 63.5769 21.1237L64.1739 21.8062C64.1154 22.4712 63.9515 23.0312 63.6822 23.4862C63.4247 23.9412 63.0617 24.2912 62.5935 24.5362C62.1369 24.7696 61.5749 24.8862 60.9076 24.8862ZM60.6442 13.9312L62.2071 10.3438H64.7359L62.7339 13.9312H60.6442Z" fill="#FAFAFA"/>
<path d="M68.5271 24.6412V15.1387H70.4588V19.1637H70.4062C70.4062 17.7987 70.6988 16.7662 71.2842 16.0662C71.8696 15.3662 72.7301 15.0162 73.8657 15.0162H74.2169V17.1337H73.5496C72.7301 17.1337 72.092 17.3554 71.6354 17.7987C71.1906 18.2304 70.9681 18.8604 70.9681 19.6887V24.6412H68.5271Z" fill="#FAFAFA"/>
<path d="M76.3065 24.6412V15.1387H78.7475V24.6412H76.3065ZM74.9719 16.9587V15.1387H78.7475V16.9587H74.9719ZM77.2021 14.0012C76.7221 14.0012 76.3651 13.8787 76.1309 13.6337C75.9085 13.3771 75.7972 13.0621 75.7972 12.6887C75.7972 12.2921 75.9085 11.9712 76.1309 11.7262C76.3651 11.4812 76.7221 11.3587 77.2021 11.3587C77.6821 11.3587 78.0333 11.4812 78.2558 11.7262C78.4782 11.9712 78.5894 12.2921 78.5894 12.6887C78.5894 13.0621 78.4782 13.3771 78.2558 13.6337C78.0333 13.8787 77.6821 14.0012 77.2021 14.0012Z" fill="#FAFAFA"/>
<path d="M86.1441 24.9737C85.3012 24.9737 84.5578 24.8396 83.9139 24.5712C83.27 24.3029 82.7256 23.9412 82.2807 23.4862C81.8358 23.0196 81.4963 22.4946 81.2621 21.9112C81.0397 21.3279 80.9285 20.7212 80.9285 20.0912V19.7237C80.9285 19.0704 81.0456 18.4521 81.2797 17.8687C81.5256 17.2737 81.8709 16.7487 82.3158 16.2937C82.7724 15.8271 83.3226 15.4654 83.9665 15.2087C84.6104 14.9404 85.3363 14.8062 86.1441 14.8062C86.9519 14.8062 87.6778 14.9404 88.3217 15.2087C88.9656 15.4654 89.51 15.8271 89.9548 16.2937C90.4114 16.7487 90.7568 17.2737 90.9909 17.8687C91.2251 18.4521 91.3421 19.0704 91.3421 19.7237V20.0912C91.3421 20.7212 91.2251 21.3279 90.9909 21.9112C90.7685 22.4946 90.4348 23.0196 89.9899 23.4862C89.5451 23.9412 89.0007 24.3029 88.3568 24.5712C87.7129 24.8396 86.9753 24.9737 86.1441 24.9737ZM86.1441 22.8912C86.7412 22.8912 87.2446 22.7629 87.6543 22.5062C88.0641 22.2379 88.3743 21.8821 88.5851 21.4387C88.7958 20.9837 88.9012 20.4704 88.9012 19.8987C88.9012 19.3154 88.7899 18.8021 88.5675 18.3587C88.3568 17.9037 88.0407 17.5479 87.6192 17.2912C87.2095 17.0229 86.7178 16.8887 86.1441 16.8887C85.5704 16.8887 85.0729 17.0229 84.6514 17.2912C84.2417 17.5479 83.9256 17.9037 83.7031 18.3587C83.4807 18.8021 83.3695 19.3154 83.3695 19.8987C83.3695 20.4704 83.4748 20.9837 83.6856 21.4387C83.908 21.8821 84.2241 22.2379 84.6339 22.5062C85.0436 22.7629 85.547 22.8912 86.1441 22.8912Z" fill="#FAFAFA"/>
<path d="M101.221 24.9562C100.553 24.9562 99.9388 24.8337 99.3768 24.5887C98.8149 24.3437 98.329 23.9996 97.9193 23.5562C97.5095 23.1129 97.1934 22.5996 96.971 22.0162C96.7485 21.4212 96.6373 20.7796 96.6373 20.0912V19.7237C96.6373 19.0471 96.7427 18.4112 96.9534 17.8162C97.1759 17.2212 97.4803 16.7021 97.8666 16.2587C98.2646 15.8154 98.7388 15.4712 99.289 15.2262C99.851 14.9696 100.471 14.8412 101.15 14.8412C101.9 14.8412 102.555 15.0046 103.117 15.3312C103.691 15.6462 104.148 16.1246 104.487 16.7662C104.827 17.4079 105.014 18.2129 105.049 19.1812L104.329 18.3412V11.8662H106.77V24.6412H104.838V20.5987H105.26C105.225 21.5671 105.026 22.3779 104.663 23.0312C104.3 23.6729 103.82 24.1571 103.223 24.4837C102.637 24.7987 101.97 24.9562 101.221 24.9562ZM101.765 22.9087C102.245 22.9087 102.684 22.8037 103.082 22.5937C103.48 22.3721 103.796 22.0571 104.03 21.6487C104.276 21.2287 104.399 20.7387 104.399 20.1787V19.4787C104.399 18.9187 104.276 18.4521 104.03 18.0787C103.785 17.6937 103.463 17.4021 103.065 17.2037C102.667 16.9937 102.233 16.8887 101.765 16.8887C101.238 16.8887 100.77 17.0171 100.36 17.2737C99.9622 17.5187 99.6461 17.8687 99.412 18.3237C99.1895 18.7787 99.0783 19.3096 99.0783 19.9162C99.0783 20.5229 99.1954 21.0537 99.4295 21.5087C99.6637 21.9521 99.9798 22.2962 100.378 22.5412C100.788 22.7862 101.25 22.9087 101.765 22.9087Z" fill="#FAFAFA"/>
<path d="M114.132 24.9737C113.289 24.9737 112.546 24.8396 111.902 24.5712C111.258 24.3029 110.713 23.9412 110.268 23.4862C109.824 23.0196 109.484 22.4946 109.25 21.9112C109.028 21.3279 108.916 20.7212 108.916 20.0912V19.7237C108.916 19.0704 109.033 18.4521 109.268 17.8687C109.513 17.2737 109.859 16.7487 110.304 16.2937C110.76 15.8271 111.31 15.4654 111.954 15.2087C112.598 14.9404 113.324 14.8062 114.132 14.8062C114.94 14.8062 115.666 14.9404 116.309 15.2087C116.953 15.4654 117.498 15.8271 117.943 16.2937C118.399 16.7487 118.745 17.2737 118.979 17.8687C119.213 18.4521 119.33 19.0704 119.33 19.7237V20.0912C119.33 20.7212 119.213 21.3279 118.979 21.9112C118.756 22.4946 118.423 23.0196 117.978 23.4862C117.533 23.9412 116.988 24.3029 116.345 24.5712C115.701 24.8396 114.963 24.9737 114.132 24.9737ZM114.132 22.8912C114.729 22.8912 115.232 22.7629 115.642 22.5062C116.052 22.2379 116.362 21.8821 116.573 21.4387C116.784 20.9837 116.889 20.4704 116.889 19.8987C116.889 19.3154 116.778 18.8021 116.555 18.3587C116.345 17.9037 116.028 17.5479 115.607 17.2912C115.197 17.0229 114.706 16.8887 114.132 16.8887C113.558 16.8887 113.061 17.0229 112.639 17.2912C112.229 17.5479 111.913 17.9037 111.691 18.3587C111.468 18.8021 111.357 19.3154 111.357 19.8987C111.357 20.4704 111.463 20.9837 111.673 21.4387C111.896 21.8821 112.212 22.2379 112.622 22.5062C113.031 22.7629 113.535 22.8912 114.132 22.8912Z" fill="#FAFAFA"/>
<path d="M131.228 24.9737C130.069 24.9737 129.074 24.7696 128.243 24.3612C127.411 23.9529 126.732 23.4221 126.206 22.7687C125.69 22.1154 125.31 21.4037 125.064 20.6337C124.818 19.8637 124.695 19.1229 124.695 18.4112V18.0262C124.695 17.2329 124.818 16.4512 125.064 15.6812C125.322 14.9112 125.714 14.2112 126.241 13.5812C126.768 12.9512 127.435 12.4496 128.243 12.0762C129.062 11.6912 130.028 11.4987 131.14 11.4987C132.299 11.4987 133.306 11.7087 134.161 12.1287C135.027 12.5371 135.718 13.1204 136.233 13.8787C136.748 14.6254 137.058 15.5004 137.164 16.5037H134.652C134.559 15.9204 134.348 15.4304 134.02 15.0337C133.704 14.6254 133.3 14.3221 132.809 14.1237C132.317 13.9137 131.761 13.8087 131.14 13.8087C130.508 13.8087 129.946 13.9196 129.454 14.1412C128.963 14.3512 128.553 14.6546 128.225 15.0512C127.897 15.4479 127.646 15.9146 127.47 16.4512C127.306 16.9879 127.224 17.5829 127.224 18.2362C127.224 18.8662 127.306 19.4496 127.47 19.9862C127.646 20.5229 127.903 20.9954 128.243 21.4037C128.582 21.8004 128.998 22.1096 129.49 22.3312C129.993 22.5529 130.572 22.6637 131.228 22.6637C132.188 22.6637 132.996 22.4304 133.651 21.9637C134.319 21.4854 134.723 20.8204 134.863 19.9687H137.374C137.257 20.8787 136.947 21.7129 136.444 22.4712C135.94 23.2296 135.25 23.8362 134.371 24.2912C133.493 24.7462 132.446 24.9737 131.228 24.9737Z" fill="#FAFAFA"/>
<path d="M139.408 24.6412V11.8662H141.849V24.6412H139.408ZM138.214 13.6862V11.8662H141.849V13.6862H138.214Z" fill="#FAFAFA"/>
<path d="M145.093 24.6412V15.1387H147.534V24.6412H145.093ZM143.758 16.9587V15.1387H147.534V16.9587H143.758ZM145.988 14.0012C145.508 14.0012 145.151 13.8787 144.917 13.6337C144.695 13.3771 144.583 13.0621 144.583 12.6887C144.583 12.2921 144.695 11.9712 144.917 11.7262C145.151 11.4812 145.508 11.3587 145.988 11.3587C146.468 11.3587 146.82 11.4812 147.042 11.7262C147.264 11.9712 147.376 12.2921 147.376 12.6887C147.376 13.0621 147.264 13.3771 147.042 13.6337C146.82 13.8787 146.468 14.0012 145.988 14.0012Z" fill="#FAFAFA"/>
<path d="M150.347 24.6412V15.1387H152.279V19.2162H152.103C152.103 18.2596 152.226 17.4604 152.472 16.8187C152.718 16.1654 153.081 15.6754 153.561 15.3487C154.052 15.0104 154.661 14.8412 155.387 14.8412H155.492C156.23 14.8412 156.839 15.0104 157.319 15.3487C157.81 15.6754 158.173 16.1654 158.407 16.8187C158.653 17.4604 158.776 18.2596 158.776 19.2162H158.162C158.162 18.2596 158.284 17.4604 158.53 16.8187C158.788 16.1654 159.157 15.6754 159.637 15.3487C160.128 15.0104 160.737 14.8412 161.463 14.8412H161.568C162.306 14.8412 162.921 15.0104 163.412 15.3487C163.904 15.6754 164.273 16.1654 164.519 16.8187C164.776 17.4604 164.905 18.2596 164.905 19.2162V24.6412H162.464V18.9887C162.464 18.3937 162.312 17.9212 162.007 17.5712C161.703 17.2096 161.27 17.0287 160.708 17.0287C160.146 17.0287 159.695 17.2154 159.356 17.5887C159.016 17.9504 158.846 18.4404 158.846 19.0587V24.6412H156.405V18.9887C156.405 18.3937 156.253 17.9212 155.949 17.5712C155.644 17.2096 155.211 17.0287 154.649 17.0287C154.087 17.0287 153.637 17.2154 153.297 17.5887C152.958 17.9504 152.788 18.4404 152.788 19.0587V24.6412H150.347Z" fill="#FAFAFA"/>
<path d="M173.291 24.6412V21.8237H172.887V18.6912C172.887 18.1429 172.752 17.7346 172.483 17.4662C172.214 17.1979 171.798 17.0637 171.236 17.0637C170.944 17.0637 170.592 17.0696 170.183 17.0812C169.773 17.0929 169.357 17.1104 168.936 17.1337C168.526 17.1454 168.157 17.1629 167.83 17.1862V15.1212C168.099 15.0979 168.403 15.0746 168.743 15.0512C169.082 15.0279 169.428 15.0162 169.779 15.0162C170.142 15.0046 170.481 14.9987 170.797 14.9987C171.781 14.9987 172.594 15.1271 173.238 15.3837C173.894 15.6404 174.386 16.0429 174.713 16.5912C175.053 17.1396 175.223 17.8571 175.223 18.7437V24.6412H173.291ZM170.218 24.8862C169.527 24.8862 168.918 24.7637 168.391 24.5187C167.876 24.2737 167.472 23.9237 167.18 23.4687C166.899 23.0137 166.758 22.4654 166.758 21.8237C166.758 21.1237 166.928 20.5521 167.268 20.1087C167.619 19.6654 168.105 19.3329 168.725 19.1112C169.357 18.8896 170.095 18.7787 170.938 18.7787H173.15V20.2312H170.903C170.341 20.2312 169.908 20.3712 169.603 20.6512C169.311 20.9196 169.164 21.2696 169.164 21.7012C169.164 22.1329 169.311 22.4829 169.603 22.7512C169.908 23.0196 170.341 23.1537 170.903 23.1537C171.242 23.1537 171.552 23.0954 171.833 22.9787C172.126 22.8504 172.366 22.6404 172.553 22.3487C172.752 22.0454 172.864 21.6371 172.887 21.1237L173.484 21.8062C173.426 22.4712 173.262 23.0312 172.992 23.4862C172.735 23.9412 172.372 24.2912 171.904 24.5362C171.447 24.7696 170.885 24.8862 170.218 24.8862Z" fill="#FAFAFA"/>
<path fill-rule="evenodd" clip-rule="evenodd" d="M7.28956 26.3039C2.7583 21.7884 2.7583 14.4673 7.28956 9.95174C11.8208 5.43621 19.1674 5.43621 23.6987 9.95174C28.0326 14.2706 28.2214 21.156 24.265 25.6984L22.0014 23.4427V16.1245C22.0014 15.6676 21.6298 15.2973 21.1713 15.2973C20.7129 15.2973 20.3413 15.6676 20.3413 16.1245V21.7883L17.7599 19.216V16.0117C17.7599 15.5549 17.3883 15.1846 16.9299 15.1846C16.4714 15.1846 16.0998 15.5549 16.0998 16.0117V17.5616L14.3202 15.7882C13.996 15.4651 13.4705 15.4651 13.1463 15.7882C12.8221 16.1112 12.8221 16.635 13.1463 16.958L18.186 21.9802H13.101C12.6426 21.9802 12.271 22.3505 12.271 22.8074C12.271 23.2642 12.6426 23.6345 13.101 23.6345H19.7287C19.7661 23.6345 19.8028 23.6321 19.8389 23.6273L23.0911 26.8682C18.5328 30.8109 11.6235 30.6227 7.28956 26.3039ZM24.8979 8.75666C29.8944 13.7358 30.084 21.6911 25.4669 26.8961L26.646 28.0712L26.9332 27.7851C27.0988 27.6201 27.3672 27.6201 27.5328 27.7851L32.8027 33.0366C32.9682 33.2016 32.9682 33.4691 32.8027 33.6342L31.0545 35.3762C30.8889 35.5413 30.6205 35.5413 30.4549 35.3762L25.185 30.1247C25.0194 29.9597 25.0194 29.6922 25.185 29.5272L25.4722 29.241L24.293 28.0659C19.0698 32.6671 11.0868 32.4781 6.09032 27.499C0.896734 22.3234 0.896734 13.9322 6.09032 8.75666C11.2839 3.58111 19.7044 3.58111 24.8979 8.75666Z" fill="#7FE389"/>
</svg>

<svg fill="none" xmlns="http://www.w3.org/2000/svg" viewBox="0 0 180 36"><path d="M41.04 24.71v-2.3h2.65c.67 0 1.26-.1 1.78-.3a3.8 3.8 0 0 0 2.16-2.2c.2-.5.3-1.07.3-1.7 0-.63-.1-1.2-.3-1.7a3.54 3.54 0 0 0-.83-1.32 3.53 3.53 0 0 0-1.33-.82 5.18 5.18 0 0 0-1.78-.28h-2.65v-2.31h2.5c1.15 0 2.16.17 3.03.5a5.98 5.98 0 0 1 3.88 5.75v.38c0 .77-.14 1.53-.44 2.28a6.02 6.02 0 0 1-1.28 2.03c-.57.6-1.3 1.09-2.16 1.45-.86.36-1.88.54-3.04.54h-2.49Zm-2.14 0V11.78h2.5v12.93h-2.5Zm14.05-.07v-9.5h2.44v9.5h-2.44Zm-1.34-7.68v-1.82h3.78v1.82h-3.78ZM53.84 14c-.48 0-.83-.12-1.07-.37a1.4 1.4 0 0 1-.33-.94c0-.4.11-.72.33-.97.24-.24.6-.36 1.07-.36.48 0 .83.12 1.06.37.22.24.33.56.33.96 0 .37-.1.69-.33.94-.22.25-.58.37-1.06.37Zm10.14 10.64v-2.82h-.4V18.7c0-.55-.14-.96-.4-1.23-.28-.26-.7-.4-1.25-.4a46.78 46.78 0 0 0-2.3.07c-.41.01-.78.03-1.11.06v-2.07l.91-.07a33.74 33.74 0 0 1 2.05-.05c.99 0 1.8.13 2.45.38.65.26 1.14.66 1.47 1.21.34.55.51 1.27.51 2.15v5.9h-1.93Zm-3.07.25c-.7 0-1.3-.13-1.83-.37a2.87 2.87 0 0 1-1.21-1.05c-.28-.46-.42-1-.42-1.65 0-.7.17-1.27.5-1.71.36-.45.84-.78 1.46-1a6.7 6.7 0 0 1 2.22-.33h2.21v1.45h-2.25c-.56 0-1 .14-1.3.42-.29.27-.44.62-.44 1.05 0 .43.15.78.44 1.05.3.27.74.4 1.3.4.34 0 .65-.06.93-.17.3-.13.54-.34.72-.63.2-.3.31-.71.34-1.23l.6.69a3.96 3.96 0 0 1-.5 1.68 2.62 2.62 0 0 1-1.09 1.05c-.45.23-1.02.35-1.68.35Zm-.27-10.96 1.57-3.59h2.53l-2 3.6h-2.1Zm7.89 10.71v-9.5h1.93v4.03h-.05c0-1.37.29-2.4.87-3.1.59-.7 1.45-1.05 2.59-1.05h.35v2.11h-.67c-.82 0-1.46.23-1.92.67-.44.43-.66 1.06-.66 1.89v4.95h-2.44Zm7.78 0v-9.5h2.44v9.5H76.3Zm-1.34-7.68v-1.82h3.78v1.82h-3.78ZM77.2 14c-.48 0-.84-.12-1.07-.37a1.4 1.4 0 0 1-.33-.94c0-.4.1-.72.33-.97.24-.24.6-.36 1.07-.36s.83.12 1.06.37c.22.24.33.56.33.96 0 .37-.11.69-.33.94-.23.25-.58.37-1.06.37Zm8.94 10.97c-.84 0-1.58-.13-2.23-.4a4.87 4.87 0 0 1-1.63-1.08 4.92 4.92 0 0 1-1.02-1.58 5.07 5.07 0 0 1-.33-1.82v-.37c0-.65.12-1.27.35-1.85a4.92 4.92 0 0 1 1.04-1.58 4.72 4.72 0 0 1 1.65-1.08 5.6 5.6 0 0 1 2.17-.4c.81 0 1.54.13 2.18.4a4.55 4.55 0 0 1 1.64 1.08 4.93 4.93 0 0 1 1.39 3.43v.37a4.84 4.84 0 0 1-.36 1.82 4.68 4.68 0 0 1-1 1.58 4.87 4.87 0 0 1-1.63 1.08 5.7 5.7 0 0 1-2.22.4Zm0-2.08c.6 0 1.1-.13 1.51-.38.41-.27.72-.63.94-1.07.2-.46.31-.97.31-1.54 0-.59-.11-1.1-.33-1.54a2.4 2.4 0 0 0-.95-1.07c-.41-.27-.9-.4-1.48-.4a2.56 2.56 0 0 0-2.44 1.47 3.4 3.4 0 0 0-.33 1.54c0 .57.1 1.08.32 1.54.22.44.53.8.94 1.07.41.25.92.38 1.51.38Zm15.08 2.07a4.56 4.56 0 0 1-1.84-.37 4.3 4.3 0 0 1-1.46-1.03 4.72 4.72 0 0 1-.95-1.54 5.45 5.45 0 0 1-.33-1.93v-.37c0-.67.1-1.3.31-1.9a5.02 5.02 0 0 1 .92-1.56 4.17 4.17 0 0 1 1.42-1.03 4.43 4.43 0 0 1 1.86-.39c.75 0 1.4.16 1.97.5.57.3 1.03.78 1.37 1.43.34.64.52 1.44.56 2.41l-.72-.84v-6.47h2.44v12.77h-1.93V20.6h.42a5.36 5.36 0 0 1-.6 2.43 3.67 3.67 0 0 1-3.44 1.93Zm.55-2.05a2.46 2.46 0 0 0 2.26-1.26c.25-.42.37-.91.37-1.47v-.7a2.5 2.5 0 0 0-.37-1.4 2.4 2.4 0 0 0-.97-.88 2.75 2.75 0 0 0-1.3-.31c-.52 0-.99.13-1.4.38a2.6 2.6 0 0 0-.95 1.05c-.22.46-.33.99-.33 1.6 0 .6.11 1.13.35 1.59.23.44.55.79.95 1.03.4.25.87.37 1.38.37Zm12.36 2.06c-.84 0-1.58-.13-2.23-.4a4.88 4.88 0 0 1-1.63-1.08 4.93 4.93 0 0 1-1.02-1.58 5.08 5.08 0 0 1-.33-1.82v-.37c0-.65.11-1.27.35-1.85a4.9 4.9 0 0 1 1.03-1.58 4.72 4.72 0 0 1 1.65-1.08 5.6 5.6 0 0 1 2.18-.4c.81 0 1.54.13 2.18.4a4.55 4.55 0 0 1 1.63 1.08 4.93 4.93 0 0 1 1.39 3.43v.37c0 .63-.12 1.24-.35 1.82a4.69 4.69 0 0 1-1 1.58 4.88 4.88 0 0 1-1.63 1.08 5.7 5.7 0 0 1-2.22.4Zm0-2.08c.6 0 1.1-.13 1.51-.38.41-.27.72-.63.93-1.07.21-.46.32-.97.32-1.54 0-.59-.11-1.1-.33-1.54a2.4 2.4 0 0 0-.95-1.07c-.41-.27-.9-.4-1.48-.4-.57 0-1.07.13-1.5.4-.4.26-.72.61-.94 1.07-.22.44-.33.95-.33 1.54 0 .57.1 1.08.31 1.54.23.44.54.8.95 1.07.41.25.92.38 1.51.38Zm17.1 2.08a6.7 6.7 0 0 1-2.99-.6 5.9 5.9 0 0 1-2.03-1.6 6.72 6.72 0 0 1-1.15-2.14 7.3 7.3 0 0 1-.37-2.22v-.38c0-.8.13-1.58.37-2.35a6.43 6.43 0 0 1 1.18-2.1 5.67 5.67 0 0 1 2-1.5 6.75 6.75 0 0 1 2.9-.58c1.16 0 2.17.2 3.02.63a5.06 5.06 0 0 1 2.07 1.75c.52.75.83 1.62.93 2.62h-2.5a3 3 0 0 0-.64-1.47 2.85 2.85 0 0 0-1.21-.9 4.21 4.21 0 0 0-1.67-.32c-.63 0-1.2.1-1.69.33-.49.21-.9.52-1.23.91a4.25 4.25 0 0 0-.75 1.4 6.1 6.1 0 0 0-.25 1.79c0 .63.09 1.21.25 1.75.18.53.43 1 .77 1.41.34.4.76.71 1.25.93.5.22 1.08.33 1.74.33.96 0 1.77-.23 2.42-.7a2.94 2.94 0 0 0 1.21-2h2.51a5.8 5.8 0 0 1-.93 2.51c-.5.76-1.19 1.37-2.07 1.82-.88.46-1.92.68-3.14.68Zm8.18-.33V11.87h2.44v12.77h-2.44Zm-1.2-10.95v-1.82h3.64v1.82h-3.64Zm6.88 10.95v-9.5h2.44v9.5h-2.44Zm-1.33-7.68v-1.82h3.77v1.82h-3.77Zm2.23-2.96c-.48 0-.84-.12-1.07-.37a1.4 1.4 0 0 1-.34-.94c0-.4.11-.72.34-.96.23-.25.59-.37 1.07-.37s.83.12 1.05.37c.22.24.34.56.34.96 0 .37-.12.69-.34.94-.22.25-.57.37-1.05.37Zm4.36 10.64v-9.5h1.93v4.08h-.18c0-.96.13-1.76.37-2.4.25-.65.61-1.14 1.1-1.47.48-.34 1.1-.5 1.82-.5h.1c.74 0 1.35.16 1.83.5.49.33.85.82 1.09 1.47.24.64.37 1.44.37 2.4h-.62c0-.96.12-1.76.37-2.4.26-.65.63-1.14 1.1-1.47.5-.34 1.1-.5 1.83-.5h.1c.75 0 1.36.16 1.85.5.5.33.86.82 1.1 1.47.27.64.4 1.44.4 2.4v5.42h-2.45V19c0-.6-.15-1.07-.45-1.42a1.6 1.6 0 0 0-1.3-.54c-.56 0-1.02.19-1.35.56-.34.36-.51.85-.51 1.47v5.58h-2.45V19c0-.6-.15-1.07-.45-1.42-.3-.36-.74-.54-1.3-.54s-1.01.19-1.35.56c-.34.36-.51.85-.51 1.47v5.58h-2.44Zm22.94 0v-2.82h-.4V18.7c0-.55-.14-.96-.4-1.23-.28-.26-.7-.4-1.25-.4a46.67 46.67 0 0 0-2.3.07c-.41.01-.78.03-1.11.06v-2.07l.91-.07a33.8 33.8 0 0 1 2.05-.05c1 0 1.8.13 2.45.38.65.26 1.15.66 1.47 1.21.34.55.51 1.27.51 2.15v5.9h-1.93Zm-3.07.25c-.7 0-1.3-.13-1.83-.37a2.87 2.87 0 0 1-1.21-1.05c-.28-.46-.42-1-.42-1.65 0-.7.17-1.27.5-1.71.36-.45.84-.78 1.46-1a6.7 6.7 0 0 1 2.22-.33h2.21v1.45h-2.25c-.56 0-1 .14-1.3.42-.29.27-.44.62-.44 1.05 0 .43.15.78.44 1.05.3.27.74.4 1.3.4.34 0 .65-.06.93-.17.3-.13.54-.34.72-.63.2-.3.31-.71.34-1.23l.6.69a3.93 3.93 0 0 1-.5 1.68c-.26.45-.62.8-1.09 1.05-.45.23-1.02.35-1.68.35Z" fill="#FAFAFA"/><path fill-rule="evenodd" clip-rule="evenodd" d="M7.29 26.3a11.53 11.53 0 0 1 0-16.35 11.63 11.63 0 0 1 16.4 0 11.53 11.53 0 0 1 .57 15.75L22 23.44v-7.32a.83.83 0 0 0-.83-.82.83.83 0 0 0-.83.83v5.66l-2.58-2.57v-3.2a.83.83 0 0 0-.83-.83.83.83 0 0 0-.83.82v1.55l-1.78-1.77a.83.83 0 0 0-1.17 0 .82.82 0 0 0 0 1.17l5.04 5.02H13.1a.83.83 0 1 0 0 1.66h6.63a.83.83 0 0 0 .1-.01l3.26 3.24a11.63 11.63 0 0 1-15.8-.57Zm17.6-17.54c5 4.98 5.2 12.93.58 18.14l1.18 1.17.28-.28a.42.42 0 0 1 .6 0l5.27 5.25a.42.42 0 0 1 0 .6l-1.74 1.74a.42.42 0 0 1-.6 0l-5.28-5.26a.42.42 0 0 1 0-.6l.3-.28-1.19-1.17a13.33 13.33 0 0 1-18.2-.57 13.22 13.22 0 0 1 0-18.74 13.33 13.33 0 0 1 18.8 0Z" fill="#7FE389"/></svg>
